icons/person-chevron-up.svg

<svg xmlns="http://www.w3.org/2000/svg" width="24" height="24" viewBox="0 0 24 24">
  <path d="M10,16 C12.9230769,16 15.8461538,16.9493754 15.9941334,19.3106425 L16,19.5 L16,20.5 C16,20.975 16,21.90125 15.142625,21.9926875 L15,22 L3,22 C2.1,22 2.01,21.19 2.001,20.6635 L2,19.5 C2,17.0641026 4.84812623,16.0522682 7.76928134,16.0019808 L8,16 L10,16 Z M9,6 C11.209139,6 13,7.790861 13,10 C13,12.209139 11.209139,14 9,14 C6.790861,14 5,12.209139 5,10 C5,7.790861 6.790861,6 9,6 Z M18.6128994,2.70970461 L18.7071068,2.79289322 L21.7071068,5.79289322 C22.0976311,6.18341751 22.0976311,6.81658249 21.7071068,7.20710678 C21.3466228,7.56759074 20.7793918,7.59532028 20.3871006,7.29029539 L20.2928932,7.20710678 L18,4.915 L15.7071068,7.20710678 C15.3466228,7.56759074 14.7793918,7.59532028 14.3871006,7.29029539 L14.2928932,7.20710678 C13.9324093,6.84662282 13.9046797,6.27939176 14.2097046,5.88710056 L14.2928932,5.79289322 L17.2928932,2.79289322 C17.6533772,2.43240926 18.2206082,2.40467972 18.6128994,2.70970461 Z"/>
</svg>

<svg xmlns="http://www.w3.org/2000/svg" viewBox="0 0 24 24">
  <path d="M10 16c2.92 0 5.85.95 6 3.31v1.19c0 .48 0 1.4-.86 1.5H3c-.9 0-.99-.81-1-1.34V19.5c0-2.44 2.85-3.45 5.77-3.5H10zM9 6a4 4 0 1 1 0 8 4 4 0 0 1 0-8zm9.61-3.29.1.08 3 3a1 1 0 0 1-1.32 1.5l-.1-.08L18 4.9l-2.3 2.3a1 1 0 0 1-1.31.08l-.1-.08a1 1 0 0 1-.08-1.32l.08-.1 3-3a1 1 0 0 1 1.32-.08z"/>
</svg>
